svgs/sharp-light/file-circle-exclamation.svg

<svg xmlns="http://www.w3.org/2000/svg" viewBox="0 0 576 512"><!--! Font Awesome Pro 6.6.0 by @fontawesome - https://fontawesome.com License - https://fontawesome.com/license (Commercial License) Copyright 2024 Fonticons, Inc. --><path d="M352 192l0 19.2c10.1-5.2 20.8-9.4 32-12.6l0-46.6L232 0 32 0 0 0 0 32 0 480l0 32 32 0 298.8 0c-12.9-9.1-24.5-19.9-34.6-32L32 480 32 32l160 0 0 144 0 16 16 0 144 0zm-5.3-32L224 160l0-122.7L346.7 160zM320 368a112 112 0 1 1 224 0 112 112 0 1 1 -224 0zm256 0a144 144 0 1 0 -288 0 144 144 0 1 0 288 0zM448 448l0-32-32 0 0 32 32 0zm0-160l-32 0 0 16 0 80 0 16 32 0 0-16 0-80 0-16z"/></svg>

<svg xmlns="http://www.w3.org/2000/svg" viewBox="0 0 576 512"><!--! Font Awesome Pro 6.4.0 by @fontawesome - https://fontawesome.com License - https://fontawesome.com/license (Commercial License) Copyright 2023 Fonticons, Inc. --><path d="M352 192v19.2c10.1-5.2 20.8-9.4 32-12.6V152L232 0H32 0V32 480v32H32 330.8c-12.9-9.1-24.5-19.9-34.6-32H32V32H192V176v16h16H352zm-5.3-32H224V37.3L346.7 160zM320 368a112 112 0 1 1 224 0 112 112 0 1 1 -224 0zm256 0a144 144 0 1 0 -288 0 144 144 0 1 0 288 0zM448 448V416H416v32h32zm0-160H416v16 80 16h32V384 304 288z"/></svg>
